X: 16720
T: Happy, The
R: polka
M: 2/4
K: Dmajor
af/a/ f/a/f/a/|.af/a/ f/a/f/a/|.af .bf|.af .ba|ge/g/ e/g/e/g/|
.ge ce|1 .ba .g/f/e|.ba .g/f/e:|2 .ba .g/f/e|d2 ag||
f2>.f2|e2 d2|(B/c/d) ef|ba.af|1 g3b|f2 e2|
dcBc|BAFA:|2 g/a/g/a/ g/a/g/a/|f/a/f/a/ f/a/f/a/|eA Bc|dz bz||

